themes/asg/static/images/sponsors/o-reilly.svg

<svg width="109" height="31" viewBox="0 0 109 31" fill="none" xmlns="http://www.w3.org/2000/svg">
<path fill-rule="evenodd" clip-rule="evenodd" d="M109 0.486328H0V30.4863H109V0.486328ZM54.7914 10.3441V7.73535H44.0367V23.0977H54.7914V20.5614H46.6527V16.7209H54.4281V14.1846H46.6527V10.3441H54.7914ZM62.7105 7.73535V23.0977H72.7385V20.5614H65.3265V7.73535H62.7105ZM74.847 23.0977V7.73535H77.3903V20.5614H84.8023V23.0977H74.847ZM57.4815 7.73535H60.0248V23.0977H57.4815V7.73535ZM11.9887 11.648C10.9714 12.6625 10.3901 13.9669 10.3901 15.4886C10.3901 17.0103 10.9714 18.3871 11.9887 19.3292C13.0061 20.3437 14.3141 20.9234 15.8401 20.9234C17.3661 20.9234 18.7467 20.3437 19.6914 19.3292C20.7087 18.3147 21.2901 17.0103 21.2901 15.4886C21.2901 13.9669 20.7087 12.59 19.6914 11.648C18.6741 10.706 17.3661 10.0538 15.8401 10.0538C14.3867 10.0538 13.0061 10.706 11.9887 11.648ZM7.84674 15.4886C7.84674 11.0683 11.4074 7.51758 15.8401 7.51758C20.2727 7.51758 23.8334 11.0683 23.8334 15.4886C23.8334 19.9089 20.2727 23.4596 15.8401 23.4596C11.4074 23.4596 7.84674 19.9089 7.84674 15.4886ZM31.8284 10.3441V14.1846L36.9878 14.1122C38.0051 14.1122 38.8771 13.2426 38.8771 12.2281C38.8771 11.2136 38.0778 10.3441 36.9878 10.3441H31.8284ZM41.4931 12.2281C41.4931 14.2571 40.1851 15.9238 38.2958 16.5035L42.1471 23.0977H39.1678L35.3164 16.7209H31.7558V23.0977H29.2125V7.73535H36.9878C39.4585 7.73535 41.4931 9.76434 41.4931 12.2281ZM27.4677 9.40163C27.4677 10.4886 26.5957 11.2857 25.5784 11.2857C24.5611 11.2857 23.689 10.4161 23.689 9.40163C23.689 8.38714 24.5611 7.51758 25.5784 7.51758C26.5957 7.51758 27.4677 8.38714 27.4677 9.40163ZM93.1597 7.73535H96.2843L90.471 16.1412V23.0977H87.855V16.1412L82.1143 7.73535H85.239L89.163 13.46L93.1597 7.73535ZM99.3359 10.9226C98.4639 10.9226 97.7373 10.198 97.7373 9.32839C97.7373 8.45883 98.4639 7.73419 99.3359 7.73419C100.208 7.73419 100.935 8.45883 100.935 9.32839C100.935 10.198 100.208 10.9226 99.3359 10.9226ZM99.3359 7.44434C98.2459 7.44434 97.4466 8.3139 97.4466 9.32839C97.4466 10.4153 98.3186 11.2124 99.3359 11.2124C100.426 11.2124 101.225 10.3429 101.225 9.32839C101.225 8.24144 100.353 7.44434 99.3359 7.44434ZM99.5545 8.67677H98.8279V9.11155H99.5545C99.6272 9.11155 99.7726 8.96663 99.7726 8.89417C99.7726 8.8217 99.6999 8.67677 99.5545 8.67677ZM99.5545 8.31445C99.9179 8.31445 100.136 8.60431 100.136 8.89417C100.136 9.18402 99.9905 9.40141 99.6998 9.40141L100.063 10.271H99.6998L99.3365 9.47387H98.8279V10.271H98.4645V8.31445H99.5545Z" fill="white"/>
</svg>

<svg width="109" height="31" fill="none" xmlns="http://www.w3.org/2000/svg"><path fill-rule="evenodd" clip-rule="evenodd" d="M109 .486H0v30h109v-30zm-54.209 9.858V7.735H44.037v15.363H54.79V20.56h-8.138v-3.84h7.775v-2.536h-7.775v-3.84h8.138zm7.92-2.609v15.363h10.028V20.56h-7.413V7.735h-2.615zm12.136 15.363V7.735h2.543v12.826h7.412v2.537h-9.955zM57.482 7.735h2.543v15.363H57.48V7.735zm-45.493 3.913c-1.018 1.014-1.599 2.319-1.599 3.84 0 1.522.581 2.9 1.599 3.841a5.328 5.328 0 0 0 3.851 1.594c1.526 0 2.907-.58 3.851-1.594 1.018-1.014 1.6-2.319 1.6-3.84 0-1.522-.582-2.899-1.6-3.841-1.017-.942-2.325-1.594-3.85-1.594-1.454 0-2.835.652-3.852 1.594zm-4.142 3.84a7.96 7.96 0 0 1 7.993-7.97 7.96 7.96 0 0 1 7.993 7.97 7.96 7.96 0 0 1-7.993 7.972 7.96 7.96 0 0 1-7.993-7.971zm23.981-5.144v3.84l5.16-.072c1.017 0 1.89-.87 1.89-1.884 0-1.014-.8-1.884-1.89-1.884h-5.16zm9.665 1.884c0 2.03-1.308 3.696-3.197 4.275l3.851 6.595h-2.98l-3.85-6.377h-3.561v6.377h-2.544V7.735h7.776c2.47 0 4.505 2.03 4.505 4.493zM27.468 9.402a1.874 1.874 0 0 1-1.89 1.884c-1.017 0-1.889-.87-1.889-1.884 0-1.015.872-1.884 1.89-1.884 1.017 0 1.889.87 1.889 1.884zM93.16 7.735h3.124l-5.813 8.406v6.957h-2.616V16.14l-5.74-8.406h3.124l3.924 5.725 3.997-5.725zm6.176 3.188a1.61 1.61 0 0 1-1.599-1.595c0-.87.727-1.594 1.599-1.594s1.599.725 1.599 1.594a1.61 1.61 0 0 1-1.6 1.595zm0-3.479c-1.09 0-1.89.87-1.89 1.884 0 1.087.873 1.884 1.89 1.884 1.09 0 1.889-.87 1.889-1.884a1.874 1.874 0 0 0-1.89-1.884zm.219 1.233h-.727v.435h.727c.072 0 .218-.145.218-.218 0-.072-.073-.217-.218-.217zm0-.363c.363 0 .581.29.581.58s-.145.507-.436.507l.363.87H99.7l-.364-.797h-.508v.797h-.364V8.314h1.09z" fill="#fff"/></svg>
